packages/ffe-icons/icons/filled/md/specific_gravity.svg

<svg xmlns="http://www.w3.org/2000/svg" height="24" viewBox="0 -960 960 960" width="24"><path d="M291.155-100.001q-28.019 0-48.808-18.05-20.788-18.05-23.499-46.027L146.925-820.23q-2-16.269 8.942-28.019t27.211-11.75h593.844q16.269 0 27.211 11.75t8.942 28.019l-71.923 656.152q-2.711 27.977-23.499 46.027-20.789 18.05-48.808 18.05h-377.69Zm-63.001-529.998h150.077q19.846-19 45.869-29.5 26.022-10.5 55.9-10.5t55.9 10.5q26.023 10.5 45.869 29.5h150.077L750-800H209l19.154 170.001Zm251.921 200q37.156 0 63.541-26.46 26.385-26.46 26.385-63.616t-26.46-63.541q-26.46-26.385-63.616-26.385t-63.541 26.46q-26.385 26.46-26.385 63.616t26.46 63.541q26.46 26.385 63.616 26.385Z"/></svg>

<svg xmlns="http://www.w3.org/2000/svg" height="24" viewBox="0 -960 960 960" width="24"><path d="M291.15-100q-28.01 0-48.8-18.05-20.79-18.05-23.5-46.03l-71.93-656.15q-2-16.27 8.95-28.02Q166.81-860 183.08-860h593.84q16.27 0 27.21 11.75 10.95 11.75 8.95 28.02l-71.93 656.15q-2.71 27.98-23.5 46.03T668.85-100h-377.7Zm-63-530h150.08q19.85-19 45.87-29.5Q450.12-670 480-670t55.9 10.5q26.02 10.5 45.87 29.5h150.08L750-800H209l19.15 170Zm251.92 200q37.16 0 63.55-26.46Q570-482.92 570-520.07q0-37.16-26.46-63.55Q517.08-610 479.93-610q-37.16 0-63.55 26.46Q390-557.08 390-519.93q0 37.16 26.46 63.55Q442.92-430 480.07-430Z"/></svg>
